build/svg/cmd/32/extrusiondepthfloater.svg

<?xml version="1.0" encoding="UTF-8" standalone="no"?>
<svg
   xmlns:dc="http://purl.org/dc/elements/1.1/"
   xmlns:cc="http://creativecommons.org/ns#"
   xmlns:rdf="http://www.w3.org/1999/02/22-rdf-syntax-ns#"
   xmlns:svg="http://www.w3.org/2000/svg"
   xmlns="http://www.w3.org/2000/svg"
   xmlns:sodipodi="http://sodipodi.sourceforge.net/DTD/sodipodi-0.dtd"
   xmlns:inkscape="http://www.inkscape.org/namespaces/inkscape"
   viewBox="0 0 32 32"
   version="1.1"
   id="svg6"
   sodipodi:docname="extrusiondepthfloater.svg"
   inkscape:export-filename="/home/jupiter007/Libreoffice yaru theme fullcolor/build/cmd/32/extrusiondepthfloater.png"
   inkscape:export-xdpi="95"
   inkscape:export-ydpi="95"
   inkscape:version="0.92.5 (2060ec1f9f, 2020-04-08)">
  <metadata
     id="metadata12">
    <rdf:RDF>
      <cc:Work
         rdf:about="">
        <dc:format>image/svg+xml</dc:format>
        <dc:type
           rdf:resource="http://purl.org/dc/dcmitype/StillImage" />
      </cc:Work>
    </rdf:RDF>
  </metadata>
  <defs
     id="defs10" />
  <sodipodi:namedview
     pagecolor="#ffffff"
     bordercolor="#666666"
     borderopacity="1"
     objecttolerance="10"
     gridtolerance="10"
     guidetolerance="10"
     inkscape:pageopacity="0"
     inkscape:pageshadow="2"
     inkscape:window-width="1920"
     inkscape:window-height="1011"
     id="namedview8"
     showgrid="true"
     inkscape:zoom="20.85965"
     inkscape:cx="17.944771"
     inkscape:cy="17.035011"
     inkscape:window-x="0"
     inkscape:window-y="32"
     inkscape:window-maximized="1"
     inkscape:current-layer="svg6">
    <inkscape:grid
       type="xygrid"
       id="grid824" />
  </sodipodi:namedview>
  <path
     d="m13.882812 4-9.882812 10h15v14l9-10.5v-13.5z"
     fill="#b3b3b3"
     id="path2" />
  <path
     d="M 13,4 4,14 V 28 H 19 L 28,18 V 4 Z m 0.447266,1 H 14 26.324219 l -8.09961,9 H 5.3476562 Z M 27,5.7460938 V 17 17.615234 l -8,8.888672 V 14.634766 Z M 5,15 H 18 V 27 H 5 Z"
     id="path4"
     inkscape:connector-curvature="0"
     style="fill:#1463a5;fill-opacity:1"
     sodipodi:nodetypes="cccccccccccccccccccccccc" />
  <path
     sodipodi:nodetypes="cccccccc"
     style="fill:#000000;stroke:#000000;opacity:0.6;stroke-width:2;stroke-miterlimit:4;stroke-dasharray:none;stroke-linejoin:round"
     inkscape:connector-curvature="0"
     d="m 12.824219,14 2.822265,-3 h 2.824219 L 17.058594,8 10,11 h 2.824219 L 10,14 Z"
     id="path828" />
  <path
     id="path822"
     d="m 12.824219,14 2.822265,-3 h 2.824219 L 17.058594,8 10,11 h 2.824219 L 10,14 Z"
     inkscape:connector-curvature="0"
     style="fill:#ffffff"
     sodipodi:nodetypes="cccccccc" />
  <rect
     style="opacity:1;fill:#ffffff;fill-opacity:1;stroke:none;stroke-width:2;stroke-linejoin:round;stroke-miterlimit:4;stroke-dasharray:none;stroke-opacity:1"
     id="rect826"
     width="13"
     height="12"
     x="5"
     y="15" />
</svg>

<svg xmlns="http://www.w3.org/2000/svg" viewBox="0 0 32 32"><path d="M13.883 4L4 14h15v14l9-10.5V4z" fill="#b3b3b3"/><path d="M13 4L4 14v14h15l9-10V4zm.447 1h12.877l-8.1 9H5.349zM27 5.746v11.869l-8 8.889v-11.87zM5 15h13v12H5z" fill="#1463a5"/><path d="M12.824 14l2.822-3h2.825l-1.412-3L10 11h2.824L10 14z" stroke="#000" opacity=".6" stroke-width="2" stroke-linejoin="round"/><path d="M12.824 14l2.822-3h2.825l-1.412-3L10 11h2.824L10 14zM5 15h13v12H5z" fill="#fff"/></svg>
